assets/Tiger/Flat/tiger_flat.svg

<svg width="32" height="32" viewBox="0 0 32 32" fill="none" xmlns="http://www.w3.org/2000/svg">
<path d="M28.125 26.8691L28.5 25.5L28.125 24.4826C28.0454 24.3393 28 24.1747 28 24L28 23L27 22.5L26 23V24C26 25.346 26.8983 26.4923 28.125 26.8691Z" fill="#FF6723"/>
<path d="M26 21L27 21.5L28 21V19L27 18.5L26 19V21Z" fill="#FF6723"/>
<path d="M25 17L27 17.5L27.8276 17C27.4134 15.8378 26.2998 15 25 15H24.18C23.63 15 23.18 15.45 23.18 16C23.18 16.55 23.63 17 24.18 17H25Z" fill="#FF6723"/>
<path d="M15.39 29.61L13.5 22.52H10.5L11.97 28.03C11.66 28.11 11.41 28.36 11.35 28.69L11.18 29.67C11.15 29.84 11.28 30 11.46 30H15.09C15.3 30 15.45 29.81 15.39 29.61Z" fill="#FF6723"/>
<path d="M16.97 28L18.44 22.52H21.42L19.52 29.63C19.46 29.85 19.27 30 19.04 30H16.2C16.01 30 15.87 29.83 15.9 29.64L16.07 28.69C16.14 28.29 16.49 28 16.89 28H16.97Z" fill="#FF6723"/>
<path d="M24.04 15C24.65 15 25.22 15.28 25.59 15.76C25.86 16.1 26 16.53 26.01 16.96V22.78C26.01 23.59 25.88 24.39 25.62 25.16L24.12 29.66C24.06 29.86 23.87 30 23.65 30H20.43C20.21 30 20.05 29.8 20.1 29.59L20.3 28.79C20.41 28.33 20.83 28 21.31 28H21.53L21.7988 27L22.5 26.5L21.56 26L20.56 25L20.5 24.5L19.56 24H10.98V29.69C10.98 29.86 10.84 30 10.67 30H7.42001C7.19001 30 7.00001 29.81 7.00001 29.58V28.98C7.00001 28.44 7.44001 28 7.99001 28V27L8.5 26.5L7.99001 26V23.63C6.81001 23.04 7.00001 21.4137 7.00001 20.0137V16.96L3.47961 15.76L4.00001 13C4.00001 12.96 5.03001 11.74 5.76001 10.87C6.23001 10.32 6.91001 10 7.64001 10H7.99001V9.5C7.99001 8.67 8.66001 8 9.49001 8C10.32 8 10.99 8.67 10.99 9.5V11.46C10.99 11.8 11.13 12.14 11.37 12.38L13 14.01L14 15.5L15 15H17L18 15.5L19 15H21L22 15.5L23 15H24.04Z" fill="#FF822D"/>
<path d="M10 10V9.5C10 9.22 9.78 9 9.5 9C9.22 9 9 9.22 9 9.5V10H10Z" fill="#FF6723"/>
<path d="M8.99 16.5L8.36 17.44C8.12 17.81 7.99 18.23 7.99 18.67V23.63C6.81 23.04 6 21.82 6 20.42V18H4.74C3.23 18 2 16.77 2 15.26V13.72C2 13.32 2.32 13 2.72 13H4L4.61 14.21C4.85 14.69 5.34 15 5.88 15H8.18C8.96 15 9.42 15.86 8.99 16.5Z" fill="#FFDEA7"/>
<path d="M10.99 22H17.57C18.67 22 19.57 22.9 19.57 24H10.99V22Z" fill="#FFDEA7"/>
<path d="M7.65 14.15C7.45 13.95 7.45 13.64 7.65 13.44L8.94 12.15C9.14 11.95 9.45 11.95 9.65 12.15C9.85 12.35 9.85 12.66 9.65 12.86L8.35 14.15C8.16 14.34 7.84 14.34 7.65 14.15Z" fill="#212121"/>
<path d="M5 13.5C5 13.78 5.22 14 5.5 14C5.78 14 6 13.78 6 13.5V13C6 12.72 5.78 12.5 5.5 12.5C5.22 12.5 5 12.72 5 13V13.5Z" fill="#212121"/>
<path d="M27.83 17H26.01V19H28V18C28 17.65 27.94 17.31 27.83 17Z" fill="#212121"/>
<path d="M26 21H28V23H26V21Z" fill="#212121"/>
<path d="M29 25C28.62 25 28.3 24.79 28.12 24.48V26.87C28.4 26.95 28.7 27 29 27C29.55 27 30 26.55 30 26C30 25.45 29.55 25 29 25Z" fill="#212121"/>
<path d="M13.66 14.67C13.88 14.88 14.17 15 14.47 15H15V18C15 18.55 14.55 19 14 19C13.45 19 13 18.55 13 18V14L13.66 14.67Z" fill="#212121"/>
<path d="M17 15V18C17 18.55 17.45 19 18 19C18.55 19 19 18.55 19 18V15H17Z" fill="#212121"/>
<path d="M21 18V15H23V18C23 18.55 22.55 19 22 19C21.45 19 21 18.55 21 18Z" fill="#212121"/>
<path d="M2.72 13C2.32 13 2 13.32 2 13.72V15L3.69 13H2.72Z" fill="#212121"/>
<path d="M19.56 24H23.5C23.78 24 24 24.22 24 24.5C24 24.78 23.78 25 23.5 25H20.56L19.56 24Z" fill="#212121"/>
<path d="M9.99999 24.5C9.99999 24.22 9.77999 24 9.49999 24H7.98999V25H9.49999C9.77999 25 9.99999 24.78 9.99999 24.5Z" fill="#212121"/>
<path d="M9.49999 25.99C9.77999 25.99 9.99999 26.21 9.99999 26.49C9.99999 26.77 9.77999 26.99 9.49999 26.99H7.98999V25.99H9.49999Z" fill="#212121"/>
<path d="M24 26.49C24 26.21 23.78 25.99 23.5 25.99H21.55L21.96 26.4L21.8 27H23.5C23.78 27 24 26.78 24 26.5V26.49Z" fill="#212121"/>
<path d="M9.31998 14.26C9.11998 14.46 9.11998 14.77 9.31998 14.97C9.50998 15.16 9.82998 15.16 10.02 14.97L10.48 14.52C10.68 14.32 10.68 14.01 10.48 13.81C10.28 13.61 9.96998 13.61 9.76998 13.81L9.31998 14.26Z" fill="#212121"/>
</svg>

<svg xmlns="http://www.w3.org/2000/svg" width="32" height="32" fill="none"><path fill="#FF6723" d="m28.125 26.87.375-1.37-.375-1.017A.991.991 0 0 1 28 24v-1l-1-.5-1 .5v1c0 1.346.898 2.492 2.125 2.87ZM26 21l1 .5 1-.5v-2l-1-.5-1 .5v2ZM25 17l2 .5.828-.5A3.012 3.012 0 0 0 25 15h-.82c-.55 0-1 .45-1 1s.45 1 1 1H25ZM15.39 29.61l-1.89-7.09h-3l1.47 5.51a.84.84 0 0 0-.62.66l-.17.98c-.03.17.1.33.28.33h3.63c.21 0 .36-.19.3-.39ZM16.97 28l1.47-5.48h2.98l-1.9 7.11c-.06.22-.25.37-.48.37H16.2c-.19 0-.33-.17-.3-.36l.17-.95c.07-.4.42-.69.82-.69h.08Z"/><path fill="#FF822D" d="M24.04 15c.61 0 1.18.28 1.55.76.27.34.41.77.42 1.2v5.82c0 .81-.13 1.61-.39 2.38l-1.5 4.5c-.06.2-.25.34-.47.34h-3.22c-.22 0-.38-.2-.33-.41l.2-.8c.11-.46.53-.79 1.01-.79h.22l.269-1 .701-.5-.94-.5-1-1-.06-.5-.94-.5h-8.58v5.69c0 .17-.14.31-.31.31H7.42c-.23 0-.42-.19-.42-.42v-.6c0-.54.44-.98.99-.98v-1l.51-.5-.51-.5v-2.37C6.81 23.04 7 21.414 7 20.014V16.96l-3.52-1.2L4 13c0-.04 1.03-1.26 1.76-2.13.47-.55 1.15-.87 1.88-.87h.35v-.5c0-.83.67-1.5 1.5-1.5s1.5.67 1.5 1.5v1.96c0 .34.14.68.38.92L13 14.01l1 1.49 1-.5h2l1 .5 1-.5h2l1 .5 1-.5h1.04Z"/><path fill="#FF6723" d="M10 10v-.5c0-.28-.22-.5-.5-.5s-.5.22-.5.5v.5h1Z"/><path fill="#FFDEA7" d="m8.99 16.5-.63.94c-.24.37-.37.79-.37 1.23v4.96A3.593 3.593 0 0 1 6 20.42V18H4.74C3.23 18 2 16.77 2 15.26v-1.54c0-.4.32-.72.72-.72H4l.61 1.21c.24.48.73.79 1.27.79h2.3c.78 0 1.24.86.81 1.5ZM10.99 22h6.58c1.1 0 2 .9 2 2h-8.58v-2Z"/><path fill="#212121" d="M7.65 14.15c-.2-.2-.2-.51 0-.71l1.29-1.29c.2-.2.51-.2.71 0 .2.2.2.51 0 .71l-1.3 1.29c-.19.19-.51.19-.7 0ZM5 13.5c0 .28.22.5.5.5s.5-.22.5-.5V13c0-.28-.22-.5-.5-.5s-.5.22-.5.5v.5ZM27.83 17h-1.82v2H28v-1a3 3 0 0 0-.17-1ZM26 21h2v2h-2v-2ZM29 25c-.38 0-.7-.21-.88-.52v2.39c.28.08.58.13.88.13.55 0 1-.45 1-1s-.45-1-1-1ZM13.66 14.67c.22.21.51.33.81.33H15v3c0 .55-.45 1-1 1s-1-.45-1-1v-4l.66.67ZM17 15v3c0 .55.45 1 1 1s1-.45 1-1v-3h-2ZM21 18v-3h2v3c0 .55-.45 1-1 1s-1-.45-1-1ZM2.72 13c-.4 0-.72.32-.72.72V15l1.69-2h-.97ZM19.56 24h3.94c.28 0 .5.22.5.5s-.22.5-.5.5h-2.94l-1-1ZM10 24.5c0-.28-.22-.5-.5-.5H7.99v1H9.5c.28 0 .5-.22.5-.5ZM9.5 25.99c.28 0 .5.22.5.5s-.22.5-.5.5H7.99v-1H9.5ZM24 26.49c0-.28-.22-.5-.5-.5h-1.95l.41.41-.16.6h1.7c.28 0 .5-.22.5-.5v-.01ZM9.32 14.26c-.2.2-.2.51 0 .71.19.19.51.19.7 0l.46-.45c.2-.2.2-.51 0-.71-.2-.2-.51-.2-.71 0l-.45.45Z"/></svg>
